X:204
T: Zhujiazhuangshang fang yingtai
N: C0331
O: China, Jiangsu, Xinghua
S: III, 488]
N: im strengen Sinne kein HAOZI. Enthaelt melodische Elemente de
N: Xiaodiao. Vorsaenger und Chor.
N: Vereinzelt Verzierungen, Glissandi. Vor- und Nachspiel weggelassen.
R: Haozi, Cheshui haozi, Xiao meimei. Nongtian cheshui shi chang]
M: 2/4
L: 1/16
K: G
d4e4 | d2B2e2B2 | d4B2A2 | A8
d4d4 | g2e2e2B2 | e2d2d2B2 | A8
A2A2B2d2 | A2G2d4 | d2B2G2A2
A2B2A2G2 | A4G4 | A2A2B2d2 | A4d2B2
B2B2G2A2 | B4A2E2 | G4G2G2 | A8
d6e2 | B2d2B2G2 | A8
d6e2 | E6G2 | A4A4
B2A2B2A2 | B2B2B2A2 | B4d2B2 | A4
A2A2 | E2B2E2G2 | A4A4 | E2d2E2G2 | A4A4
d3de2B2 | d8 | d8
B4B2A2 | G2A2B4 | d2B2A2G2 | A8 | G8

